X:1
T:Comb Your Hair and Curl It
M:9/8
L:1/8
R:slip jig
K:D
|: B2E E2F G2A | Bcd edc d2c |
 B2E E2F G2A | BdB AGF GFE :|
| g2e e2d efg | f2d d2c def | 
| g2e e2d edc | d2B AGF GFE  |
| g2e e2d eag | f2d d2c def | 
| g2e e2d edc  | d2B AGF GFE |
